src/assets/duotone/ShieldSlash.svg

<svg width="24" height="24" viewBox="0 0 24 24"  xmlns="http://www.w3.org/2000/svg">
<path opacity="0.4" d="M19.3598 4.63984L5.8298 18.1698L4.7298 17.3498C4.0798 16.8598 3.5498 15.7998 3.5498 14.9798V6.88984C3.5498 5.75984 4.4098 4.51984 5.4598 4.11984L10.9598 2.05984C11.5298 1.84984 12.4698 1.84984 13.0398 2.05984L18.5398 4.11984C18.8298 4.22984 19.1098 4.40984 19.3598 4.63984Z" />
<path opacity="0.4" d="M20.45 6.89008V14.9801C20.45 15.8001 19.92 16.8601 19.27 17.3501L13.77 21.4601C12.79 22.1801 11.21 22.1801 10.23 21.4601L7.54004 19.4601L20.42 6.58008C20.44 6.68008 20.45 6.79008 20.45 6.89008Z" />
<path d="M21.7699 2.22988C21.4699 1.92988 20.9799 1.92988 20.6799 2.22988L2.22988 20.6899C1.92988 20.9899 1.92988 21.4799 2.22988 21.7799C2.37988 21.9199 2.56988 21.9999 2.76988 21.9999C2.96988 21.9999 3.15988 21.9199 3.30988 21.7699L21.7699 3.30988C22.0799 3.00988 22.0799 2.52988 21.7699 2.22988Z" />
</svg>

<?xml version="1.0" encoding="UTF-8"?>
<svg width="24" height="24" viewBox="0 0 24 24" xmlns="http://www.w3.org/2000/svg">
 <path d="m19.36 4.6398-13.53 13.53-1.1-0.82c-0.65-0.49-1.18-1.55-1.18-2.37v-8.09c0-1.13 0.86-2.37 1.91-2.77l5.5-2.06c0.57-0.21 1.51-0.21 2.08 0l5.5 2.06c0.29 0.11 0.57 0.29 0.82 0.52z" opacity=".4"/>
 <path d="m20.45 6.8901v8.09c0 0.82-0.53 1.88-1.18 2.37l-5.5 4.11c-0.98 0.72-2.56 0.72-3.54 0l-2.69-2 12.88-12.88c0.02 0.1 0.03 0.21 0.03 0.31z" opacity=".4"/>
 <path d="m21.77 2.2299c-0.3-0.3-0.79-0.3-1.09 0l-18.45 18.46c-0.3 0.3-0.3 0.79 0 1.09 0.15 0.14 0.34 0.22 0.54 0.22s0.39-0.08 0.54-0.23l18.46-18.46c0.31-0.3 0.31-0.78 0-1.08z"/>
</svg>
